X:353
T:Hag with the Money, The
R:jig
H:See also #56
Z:id:hn-jig-353
M:6/8
K:D
Adc ~A3|AGE ~G3|Adc ~A3|GEA GED|Adc ~A3|AGE ~G3|~A3 cde|dcA GED:|
|:ABc d2e|fed edc|ABc dcd|eag edc|ABc d2e|fed efg|age cde|dcA GED:|

